src/Assets/Images/image8.svg

<svg width="92" height="108" viewBox="0 0 92 108" fill="none" xmlns="http://www.w3.org/2000/svg">
<path d="M46 81.0001C38.3916 81.0001 32.2 73.7317 32.2 64.8001C32.2 55.8685 38.3916 48.6001 46 48.6001C53.6084 48.6001 59.8 55.8685 59.8 64.8001C59.8 73.7317 53.6084 81.0001 46 81.0001ZM46 54.0001C40.9262 54.0001 36.8 58.8439 36.8 64.8001C36.8 70.7563 40.9262 75.6001 46 75.6001C51.0738 75.6001 55.2 70.7563 55.2 64.8001C55.2 58.8439 51.0738 54.0001 46 54.0001Z" fill="#9A3B3B"/>
<path d="M73.1584 11.1024L72.3442 7.2846C71.4748 3.2022 67.9834 0 64.3954 0H27.5954C24.0074 0 20.5206 3.2022 19.6466 7.2846L18.8324 11.1024C15.9298 12.0582 13.7908 15.1902 13.7908 18.9V24.3C13.7908 27.8802 15.778 30.9204 18.5242 31.9896L22.6688 100.105C22.9356 104.458 26.174 108 29.8908 108H62.0908C65.8076 108 69.046 104.458 69.3128 100.105L73.4574 31.9896C76.2036 30.9204 78.1908 27.8802 78.1908 24.3V18.9C78.1908 15.1902 76.0564 12.0582 73.1492 11.1024H73.1584ZM27.6 5.4H64.4C65.8674 5.4 67.528 6.9228 67.8822 8.5914L68.3514 10.8H23.644L24.1132 8.5914C24.4674 6.9228 26.1326 5.4 27.6 5.4ZM68.5032 37.8H23.5014L23.1748 32.4H68.8344L68.5032 37.8ZM65.5454 86.4H26.4592L23.8326 43.2H68.1766L65.55 86.4H65.5454ZM62.1 102.6H29.9C28.566 102.6 27.3608 101.282 27.2642 99.7218L26.7812 91.8H65.2142L64.7312 99.7218C64.6346 101.282 63.4294 102.6 62.0954 102.6H62.1ZM73.6 24.3C73.6 25.7904 72.5696 27 71.3 27H20.7C19.4304 27 18.4 25.7904 18.4 24.3V18.9C18.4 17.415 19.4304 16.2054 20.6954 16.2H20.7046C20.7046 16.2 20.7138 16.2 20.7184 16.2H71.3046C72.5742 16.2 73.6046 17.4096 73.6046 18.9L73.6 24.3Z" fill="#A57053"/>
</svg>

<svg width="92" height="108" fill="none" xmlns="http://www.w3.org/2000/svg"><path d="M46 81c-7.608 0-13.8-7.268-13.8-16.2 0-8.931 6.192-16.2 13.8-16.2 7.608 0 13.8 7.268 13.8 16.2C59.8 73.732 53.608 81 46 81Zm0-27c-5.074 0-9.2 4.844-9.2 10.8s4.126 10.8 9.2 10.8c5.074 0 9.2-4.844 9.2-10.8S51.074 54 46 54Z" fill="#9A3B3B"/><path d="m73.158 11.102-.814-3.817C71.474 3.202 67.984 0 64.395 0h-36.8c-3.588 0-7.074 3.202-7.948 7.285l-.815 3.817c-2.902.956-5.041 4.088-5.041 7.798v5.4c0 3.58 1.987 6.62 4.733 7.69l4.145 68.115c.267 4.353 3.505 7.895 7.222 7.895h32.2c3.717 0 6.955-3.542 7.222-7.895l4.144-68.115c2.747-1.07 4.734-4.11 4.734-7.69v-5.4c0-3.71-2.135-6.842-5.042-7.798h.01ZM27.6 5.4h36.8c1.467 0 3.128 1.523 3.482 3.191l.47 2.209H23.643l.47-2.209C24.466 6.923 26.132 5.4 27.6 5.4Zm40.903 32.4H23.501l-.326-5.4h45.66l-.332 5.4Zm-2.958 48.6H26.46l-2.626-43.2h44.344L65.55 86.4h-.005ZM62.1 102.6H29.9c-1.334 0-2.54-1.318-2.636-2.878l-.483-7.922h38.433l-.483 7.922c-.096 1.56-1.302 2.878-2.636 2.878h.005Zm11.5-78.3c0 1.49-1.03 2.7-2.3 2.7H20.7c-1.27 0-2.3-1.21-2.3-2.7v-5.4c0-1.485 1.03-2.695 2.295-2.7H71.305c1.27 0 2.3 1.21 2.3 2.7l-.005 5.4Z" fill="#A57053"/></svg>
